files/2/96x96/places/folder-system.svg

<?xml version="1.0" encoding="UTF-8" standalone="no"?>
<svg
   xmlns:dc="http://purl.org/dc/elements/1.1/"
   xmlns:cc="http://creativecommons.org/ns#"
   xmlns:rdf="http://www.w3.org/1999/02/22-rdf-syntax-ns#"
   xmlns:svg="http://www.w3.org/2000/svg"
   xmlns="http://www.w3.org/2000/svg"
   xmlns:sodipodi="http://sodipodi.sourceforge.net/DTD/sodipodi-0.dtd"
   xmlns:inkscape="http://www.inkscape.org/namespaces/inkscape"
   width="96"
   viewBox="0 0 96 96"
   height="96"
   id="svg3071"
   version="1.1"
   inkscape:version="0.48.5 r10040"
   sodipodi:docname="folder-system.svg">
  <metadata
     id="metadata3089">
    <rdf:RDF>
      <cc:Work
         rdf:about="">
        <dc:format>image/svg+xml</dc:format>
        <dc:type
           rdf:resource="http://purl.org/dc/dcmitype/StillImage" />
      </cc:Work>
    </rdf:RDF>
  </metadata>
  <defs
     id="defs3087" />
  <sodipodi:namedview
     pagecolor="#ffffff"
     bordercolor="#666666"
     borderopacity="1"
     objecttolerance="10"
     gridtolerance="10"
     guidetolerance="10"
     inkscape:pageopacity="0"
     inkscape:pageshadow="2"
     inkscape:window-width="1280"
     inkscape:window-height="998"
     id="namedview3085"
     showgrid="false"
     inkscape:zoom="4.9166667"
     inkscape:cx="60.037324"
     inkscape:cy="40.527684"
     inkscape:window-x="0"
     inkscape:window-y="0"
     inkscape:window-maximized="1"
     inkscape:current-layer="svg3071" />
  <path
     style="font-size:medium;font-style:normal;font-variant:normal;font-weight:normal;font-stretch:normal;text-indent:0;text-align:start;text-decoration:none;line-height:normal;letter-spacing:normal;word-spacing:normal;text-transform:none;direction:ltr;block-progression:tb;writing-mode:lr-tb;text-anchor:start;baseline-shift:baseline;color:#000000;fill:#e9b080;fill-opacity:1;fill-rule:nonzero;stroke:none;stroke-width:1;marker:none;visibility:visible;display:inline;overflow:visible;enable-background:accumulate;font-family:Sans;-inkscape-font-specification:Sans"
     d="m 12.000041,12.000035 c -1.999999,0 -3.9999979,2 -3.9999979,3.999998 l 0,3.999999 -1.9999991,0 c -1.999999,0 -4.0111358,1.898413 -3.999998,3.999998 l 0,55.999972 C 2.0003021,82.241469 4.075571,83.9998 6.3750438,84 L 89.625002,84 C 92,84 94,82.000001 94,80.000002 l 0,-49.999975 c 0,-1.999999 -2,-3.999998 -3.999998,-3.999998 l -3.999998,0 0,-9.999996 c 0,-1.999998 -1.999999,-3.999998 -3.999998,-3.999998 z"
     id="path3770"
     inkscape:connector-curvature="0"
     sodipodi:nodetypes="sscsccccccccsss" />
  <path
     inkscape:connector-curvature="0"
     style="font-size:medium;font-style:normal;font-variant:normal;font-weight:normal;font-stretch:normal;text-indent:0;text-align:start;text-decoration:none;line-height:normal;letter-spacing:normal;word-spacing:normal;text-transform:none;direction:ltr;block-progression:tb;writing-mode:lr-tb;text-anchor:start;baseline-shift:baseline;color:#000000;fill:#000000;fill-opacity:0.32156863;fill-rule:nonzero;stroke:none;stroke-width:1;marker:none;visibility:visible;display:inline;overflow:visible;enable-background:accumulate;font-family:Sans;-inkscape-font-specification:Sans"
     d="m 12.000041,12.000035 c -1.999999,0 -3.9999979,2 -3.9999979,3.999998 l 0,3.999999 -1.9999991,0 c -1.999999,0 -4.0111358,1.898413 -3.999998,3.999998 l 0,55.999972 C 2.0003021,82.241469 4.075571,83.9998 6.3750438,84 L 89.625002,84 C 92,84 94,82.000001 94,80.000002 l 0,-49.999975 c 0,-1.999999 -2,-3.999998 -3.999998,-3.999998 l -3.999998,0 0,-9.999996 c 0,-1.999998 -1.999999,-3.999998 -3.999998,-3.999998 l -69.999965,0 z m -5.999997,9.999996 47.999976,0 c 1.014627,0 1.999999,0.988334 1.999999,1.999999 l 0,3.999998 33.999983,0 C 91.081718,28.000028 92,28.943646 92,30.000027 l 0,49.999975 c 0,1.107509 -0.904228,1.999999 -1.999998,1.999999 l -83.999958,0 c -1.0254515,0 -1.999999,-0.892492 -1.999999,-1.999999 l 0,-55.999972 c 0,-1.086636 0.9580835,-1.999999 1.999999,-1.999999 z"
     id="path3779" />
  <path
     id="path3002"
     d="m 45.481461,40.000022 c -0.887394,0 -1.629632,0.7052 -1.629632,1.592799 v 2.073999 c -0.561062,0.19 -1.105479,0.4072 -1.629625,0.6664 l -1.444503,-1.444199 c -0.627484,-0.6274 -1.631762,-0.6274 -2.259197,0 l -3.62963,3.592398 c -0.627486,0.627599 -0.627486,1.631999 0,2.259199 l 1.444501,1.444599 c -0.265884,0.5332 -0.474822,1.094999 -0.666666,1.666399 h -2.037093 c -0.887399,0 -1.629631,0.7054 -1.629631,1.592799 v 5.111198 c 0,0.887399 0.742232,1.592799 1.629631,1.592799 h 2.037093 c 0.19182,0.5714 0.400794,1.133199 0.666666,1.666399 l -1.444501,1.4446 c -0.627486,0.627599 -0.627486,1.631599 0,2.259199 l 3.62963,3.592398 c 0.627483,0.627399 1.631761,0.627399 2.259197,0 l 1.444503,-1.4442 c 0.524146,0.26 1.068563,0.4778 1.629625,0.6664 v 2.073999 c 0,0.8876 0.74225,1.592799 1.629632,1.592799 h 5.074009 c 0.887395,0 1.592653,-0.705199 1.592653,-1.592799 v -2.073999 c 0.57164,-0.192 1.133418,-0.4008 1.666605,-0.6664 l 1.444505,1.4442 c 0.627482,0.627399 1.631766,0.627399 2.259199,0 l 3.62963,-3.592398 c 0.627484,-0.6276 0.62747,-1.632 0,-2.259199 l -1.481481,-1.4814 c 0.259658,-0.524199 0.478362,-1.0686 0.666666,-1.629599 h 2.074073 c 0.887395,0 1.592649,-0.7054 1.592649,-1.592799 v -5.111198 c 2e-6,-0.887399 -0.70521,-1.592799 -1.592649,-1.592799 h -2.074073 c -0.1883,-0.561 -0.407004,-1.105399 -0.666666,-1.629599 l 1.481481,-1.481399 c 0.627484,-0.6276 0.627484,-1.6316 0,-2.259199 l -3.62963,-3.592398 c -0.627486,-0.6274 -1.631765,-0.6274 -2.259199,0 l -1.444505,1.444199 c -0.533246,-0.2664 -1.095027,-0.4744 -1.666605,-0.6664 v -2.073999 c 0,-0.887599 -0.705208,-1.592799 -1.592653,-1.592799 h -5.074009 z m 2.518514,11.851594 c 2.289777,0 4.148148,1.858599 4.148148,4.148598 0,2.289599 -1.858371,4.148198 -4.148148,4.148198 -2.289779,0 -4.148146,-1.858599 -4.148146,-4.148198 0,-2.289999 1.858367,-4.148598 4.148146,-4.148598 z"
     style="line-height:normal;color:#000000;fill:#000000;fill-opacity:0.32156863;display:block"
     inkscape:connector-curvature="0" />
</svg>

<svg xmlns="http://www.w3.org/2000/svg" xmlns:xlink="http://www.w3.org/1999/xlink" width="96px" height="96px" viewBox="0 0 96 96" version="1.1">
<g id="surface1">
<path style=" stroke:none;fill-rule:nonzero;fill:rgb(91.372549%,69.019608%,50.196078%);fill-opacity:1;" d="M 12 12 C 10 12 8 14 8 16 L 8 20 L 6 20 C 4 20 1.988281 21.898438 2 24 L 2 80 C 2 82.242188 4.074219 84 6.375 84 L 89.625 84 C 92 84 94 82 94 80 L 94 30 C 94 28 92 26 90 26 L 86 26 L 86 16 C 86 14 84 12 82 12 Z M 12 12 "/>
<path style=" stroke:none;fill-rule:nonzero;fill:rgb(0%,0%,0%);fill-opacity:0.321569;" d="M 45.480469 40 C 44.59375 40 43.851562 40.707031 43.851562 41.59375 L 43.851562 43.667969 C 43.289062 43.855469 42.746094 44.074219 42.21875 44.332031 L 40.777344 42.890625 C 40.148438 42.261719 39.144531 42.261719 38.515625 42.890625 L 34.886719 46.480469 C 34.257812 47.109375 34.257812 48.113281 34.886719 48.742188 L 36.328125 50.183594 C 36.0625 50.71875 35.855469 51.28125 35.664062 51.851562 L 33.625 51.851562 C 32.738281 51.851562 31.996094 52.558594 31.996094 53.445312 L 31.996094 58.554688 C 31.996094 59.441406 32.738281 60.148438 33.625 60.148438 L 35.664062 60.148438 C 35.855469 60.71875 36.0625 61.28125 36.328125 61.816406 L 34.886719 63.257812 C 34.257812 63.886719 34.257812 64.890625 34.886719 65.519531 L 38.515625 69.109375 C 39.144531 69.738281 40.148438 69.738281 40.777344 69.109375 L 42.21875 67.667969 C 42.746094 67.925781 43.289062 68.144531 43.851562 68.332031 L 43.851562 70.40625 C 43.851562 71.292969 44.59375 72 45.480469 72 L 50.554688 72 C 51.445312 72 52.148438 71.292969 52.148438 70.40625 L 52.148438 68.332031 C 52.722656 68.140625 53.28125 67.933594 53.816406 67.667969 L 55.261719 69.109375 C 55.890625 69.738281 56.894531 69.738281 57.519531 69.109375 L 61.152344 65.519531 C 61.78125 64.890625 61.78125 63.886719 61.152344 63.257812 L 59.671875 61.777344 C 59.929688 61.253906 60.148438 60.710938 60.335938 60.148438 L 62.410156 60.148438 C 63.300781 60.148438 64.003906 59.441406 64.003906 58.554688 L 64.003906 53.445312 C 64.003906 52.558594 63.300781 51.851562 62.410156 51.851562 L 60.335938 51.851562 C 60.148438 51.289062 59.929688 50.746094 59.671875 50.222656 L 61.152344 48.742188 C 61.78125 48.113281 61.78125 47.109375 61.152344 46.480469 L 57.519531 42.890625 C 56.894531 42.261719 55.890625 42.261719 55.261719 42.890625 L 53.816406 44.332031 C 53.28125 44.066406 52.722656 43.859375 52.148438 43.667969 L 52.148438 41.59375 C 52.148438 40.707031 51.445312 40 50.554688 40 Z M 48 51.851562 C 50.289062 51.851562 52.148438 53.710938 52.148438 56 C 52.148438 58.289062 50.289062 60.148438 48 60.148438 C 45.710938 60.148438 43.851562 58.289062 43.851562 56 C 43.851562 53.710938 45.710938 51.851562 48 51.851562 Z M 48 51.851562 "/>
<path style=" stroke:none;fill-rule:nonzero;fill:rgb(0%,0%,0%);fill-opacity:0.321569;" d="M 12 12 C 10 12 8 14 8 16 L 8 20 L 6 20 C 4 20 1.988281 21.898438 2 24 L 2 80 C 2 82.242188 4.074219 84 6.375 84 L 89.625 84 C 92 84 94 82 94 80 L 94 30 C 94 28 92 26 90 26 L 86 26 L 86 16 C 86 14 84 12 82 12 Z M 6 22 L 54 22 C 55.015625 22 56 22.988281 56 24 L 56 28 L 90 28 C 91.082031 28 92 28.945312 92 30 L 92 80 C 92 81.109375 91.097656 82 90 82 L 6 82 C 4.972656 82 4 81.109375 4 80 L 4 24 C 4 22.914062 4.957031 22 6 22 Z M 6 22 "/>
</g>
</svg>
